X: 1
T: Calliope House
C: David Richardson
M: 6/8
L: 1/8
K: D
|:  "D"a3 faa | "D7"eaa def | "G"g3 fgf| "Gm"efe edB | 
"D"ABA A2F | "Bm"A2B d2e |1 "Em"faf fed | "A"e3 efg :|2 "Em"faf "A"e2d | "D"d3 def ||
|:  "D"A3 fAA | eAA fed | "G"B2e e2d | efd B2A | 
"D"ABA A2F |"Bm" A2B d2e |1 "Em"faf fed | "A"e3 f3 :|2 "Em"faf "A"e2d | "D"d3efg |]
W:Transposed from E to D
